img/logo_toast.svg

<?xml version="1.0" encoding="UTF-8" standalone="no"?>
<svg width="47px" height="40px" viewBox="0 0 47 40" version="1.1" xmlns="http://www.w3.org/2000/svg" xmlns:xlink="http://www.w3.org/1999/xlink" xmlns:sketch="http://www.bohemiancoding.com/sketch/ns">
    <!-- Generator: Sketch 3.5.1 (25234) - http://www.bohemiancoding.com/sketch -->
    <title>Imported Layers</title>
    <desc>Created with Sketch.</desc>
    <defs></defs>
    <g id="Page-1" stroke="none" stroke-width="1" fill="none" fill-rule="evenodd" sketch:type="MSPage">
        <g id="Desktop-HD-Copy-18" sketch:type="MSArtboardGroup" transform="translate(-155.000000, -2862.000000)">
            <g id="Group-Copy-12" sketch:type="MSLayerGroup" transform="translate(120.000000, 2820.000000)">
                <g id="Imported-Layers" transform="translate(35.000000, 42.000000)" sketch:type="MSShapeGroup">
                    <path d="M44.1003813,18.0625127 C43.949236,17.7458376 43.7326251,17.4685193 43.4696139,17.2517152 L43.3719897,17.1648115 C42.225307,16.0104943 39.918389,14.9919925 36.8598793,14.2469414 C33.7618604,13.492563 29.9428005,13.0478074 25.7975609,13.0478074 C21.6520915,13.0478074 17.8325722,13.492563 14.7345533,14.2469414 C11.6758139,14.9919925 9.36912563,16.0104943 8.22244291,17.1648115 L8.12481868,17.2517152 C7.86157781,17.4685193 7.64450746,17.7458376 7.49382159,18.0622852 L7.49175425,18.0613752 C7.3534724,18.3539357 7.27583243,18.6872181 7.27583243,19.0437051 L7.27583243,35.059686 C7.27583243,35.7005437 7.53999211,36.2827072 7.96471494,36.7049407 L7.96701198,36.7024383 C8.39357244,37.1246718 8.98092575,37.3872027 9.62570508,37.3872027 L41.9682681,37.3872027 C42.6153445,37.3872027 43.2031572,37.1253543 43.6292583,36.7049407 L43.6269612,36.7024383 C44.0535217,36.2804323 44.3183705,35.6984962 44.3183705,35.059686 L44.3183705,19.0437051 C44.3183705,18.6892655 44.2398117,18.3562107 44.1003813,18.0625127 M45.2169728,15.3077576 C45.7482783,15.7616131 46.1819596,16.321482 46.4810343,16.9500548 C46.7856219,17.590685 46.9565217,18.301384 46.9565217,19.0437051 L46.9565217,35.059686 C46.9565217,36.4194326 46.3955844,37.6551936 45.4921583,38.5497098 L45.4873345,38.5497098 C44.5836787,39.4442261 43.3379935,40 41.9682681,40 L9.62570508,40 C8.25322325,40 7.00524103,39.4444536 6.10181491,38.5497098 L6.10181491,38.5449324 C5.19884821,37.6499612 4.63768116,36.4164752 4.63768116,35.059686 L4.63768116,19.0437051 C4.63768116,18.3047965 4.80858099,17.5963724 5.11316859,16.9550597 L5.11316859,16.9498273 C5.41247299,16.3212545 5.84592458,15.7616131 6.3772301,15.3077576 C7.87558976,13.8190205 10.6079197,12.5677898 14.106083,11.7155879 C17.4149702,10.9095678 21.4536272,10.4347826 25.7975609,10.4347826 C30.1410352,10.4347826 34.1794624,10.9095678 37.4883496,11.7155879 C40.9860535,12.5677898 43.7188428,13.8190205 45.2169728,15.3077576" id="Fill-3" fill="#FFFFFF"></path>
                    <path d="M36.9592999,23.1884058 L45.7971014,23.1884058 L45.7971014,31.884058 L36.9592999,31.884058 C34.4864591,31.884058 32.4637681,29.9279744 32.4637681,27.5358991 C32.4637681,25.1449331 34.4864591,23.1884058 36.9592999,23.1884058" id="Fill-4" fill="#FFFFFF"></path>
                    <path d="M37.1012364,24.9275362 C38.3822921,24.9275362 39.4202899,26.0951765 39.4202899,27.5362319 C39.4202899,28.9768084 38.3822921,30.1449275 37.1012364,30.1449275 C35.8208193,30.1449275 34.7826087,28.9768084 34.7826087,27.5362319 C34.7826087,26.0951765 35.8208193,24.9275362 37.1012364,24.9275362" id="Fill-5" fill="#5A5452"></path>
                    <path d="M1.56364253,20.8695652 L4.63768116,20.8695652 L4.63768116,24.3478261 L1.56364253,24.3478261 C0.703523843,24.3478261 0,23.5653981 0,22.6085791 C0,21.6522264 0.703523843,20.8695652 1.56364253,20.8695652" id="Fill-6" fill="#FFFFFF"></path>
                    <path d="M19.4130145,1.15942029 L30.4422828,1.15942029 C32.1921857,1.15942029 33.6231884,2.6012475 33.6231884,4.36365696 L33.6231884,17.3913043 C32.7719633,17.206658 31.897799,17.0478395 31.0056432,16.9155286 C28.8979334,16.6031025 26.6820494,16.4352216 24.401171,16.4352216 C22.3544076,16.4352216 20.3438522,16.5736497 18.4034638,16.8328342 C17.6640112,16.9313878 16.9396266,17.0473864 16.2318841,17.1796974 L16.2318841,4.36365696 C16.2318841,2.6012475 17.6631116,1.15942029 19.4130145,1.15942029" id="Fill-7" fill="#56504E"></path>
                    <path d="M30.9835274,2.49151475 L20.0309653,2.49151475 C19.4969609,2.49151475 19.0109745,2.71395106 18.659215,3.07190241 L18.6616717,3.07395566 C18.3099123,3.43327585 18.091263,3.92879549 18.091263,4.47245264 L18.091263,15.9095571 C18.3487733,15.8700889 18.609187,15.8319896 18.8713874,15.796856 C19.884008,15.6604284 20.9024355,15.5557123 21.9204163,15.4874985 C22.9533608,15.4179158 23.9769251,15.3820979 24.9846323,15.3820979 C26.1171862,15.3820979 27.2515268,15.4252163 28.3798372,15.5087155 C29.5219947,15.5924428 30.6375747,15.7174634 31.7194306,15.8801271 C32.0642666,15.9321429 32.4665007,16.0001286 32.9232297,16.0831715 L32.9232297,4.47245264 C32.9232297,3.92879549 32.7048038,3.43327585 32.352821,3.07395566 L32.3550544,3.07190241 C32.0035183,2.71395106 31.5175318,2.49151475 30.9835274,2.49151475 M20.0309653,0 L30.9835274,0 C32.1853165,0 33.279456,0.502820119 34.0727574,1.31271641 L34.0772242,1.31271641 C34.8703022,2.1226127 35.3623188,3.24163842 35.3623188,4.47245264 L35.3623188,19.1304348 L33.8905125,18.8073888 C33.4190431,18.7042696 33.0047486,18.6194016 32.6447255,18.5527848 C32.2969862,18.4889057 31.870408,18.4188667 31.3670011,18.3426681 C30.3347266,18.1877611 29.2787781,18.0691284 28.2087592,17.9901921 C27.1695612,17.9137652 26.0928422,17.8738408 24.9846323,17.8738408 C23.9800519,17.8738408 23.0083023,17.9064648 22.0731804,17.9689751 C21.0828937,18.0349075 20.118291,18.1334639 19.1851792,18.2591689 C18.831633,18.3073064 18.4796502,18.3597785 18.1319108,18.4159009 C17.7817147,18.4727077 17.4335286,18.5343055 17.0907027,18.5990972 L15.6521739,18.8703554 L15.6521739,4.47245264 C15.6521739,3.24163842 16.1444139,2.1226127 16.9372686,1.31271641 L16.9417354,1.31271641 C17.7350368,0.502820119 18.8291763,0 20.0309653,0" id="Fill-8" fill="#FFFFFF"></path>
                    <path d="M13.1015065,17.3069025 C14.821129,16.7754176 16.6846341,16.3576481 18.6567257,16.0738478 C20.5674423,15.7990765 22.5471776,15.6521739 24.5628836,15.6521739 C26.8088019,15.6521739 28.9906474,15.8300676 31.0661546,16.1616966 C33.0820854,16.4838086 35.0011203,16.9557515 36.7818929,17.5545871 L36.7809936,17.5545871 C37.3030178,17.7339449 37.6811594,18.2634776 37.6811594,18.8901319 C37.6811594,19.6634448 37.1038303,20.2898551 36.3913864,20.2898551 C36.2020907,20.2898551 36.0226871,20.2456867 35.8608191,20.1668668 L35.8608191,20.1712593 C34.2641713,19.6439228 32.530835,19.2244451 30.692959,18.931128 C28.7523417,18.6212171 26.6957191,18.4550366 24.5628836,18.4550366 C22.6170956,18.4550366 20.7504431,18.589982 18.9899039,18.8435233 C17.2064335,19.1004808 15.4937804,19.4840869 13.8874655,19.9757958 C13.7548237,20.0258208 13.6122899,20.0529075 13.4641357,20.0529075 C12.7512422,20.0529075 12.173913,19.4264972 12.173913,18.6531843 C12.173913,18.016037 12.5655436,17.4789396 13.1019561,17.3090987 L13.1015065,17.3069025" id="Fill-9" fill="#FFFFFF"></path>
                    <path d="M20.8695652,1.15942029 L24.9275362,1.15942029 L24.9275362,16.2318841 L20.8695652,16.2318841 L20.8695652,1.15942029 Z" id="Fill-10" fill="#FFFFFF"></path>
                </g>
            </g>
        </g>
    </g>
</svg>

<svg width="47" height="40" xmlns="http://www.w3.org/2000/svg"><g fill="none" fill-rule="evenodd"><path d="M44.1 18.063a2.379 2.379 0 0 0-.63-.811l-.098-.087c-1.147-1.155-3.454-2.173-6.512-2.918-3.098-.754-6.917-1.2-11.062-1.2-4.146 0-7.965.446-11.063 1.2-3.06.745-5.366 1.763-6.513 2.918l-.097.087c-.263.217-.48.494-.631.81h-.002a2.293 2.293 0 0 0-.216.982V35.06c0 .64.264 1.223.689 1.645l.002-.003a2.355 2.355 0 0 0 1.659.685h32.342c.647 0 1.235-.262 1.661-.682l-.002-.003a2.308 2.308 0 0 0 .691-1.642V19.044c0-.355-.078-.688-.218-.981m1.117-2.755a4.981 4.981 0 0 1 1.264 1.642c.305.64.476 1.351.476 2.094V35.06c0 1.36-.561 2.595-1.465 3.49h-.005A4.994 4.994 0 0 1 41.968 40H9.626a4.999 4.999 0 0 1-3.524-1.45v-.005a4.899 4.899 0 0 1-1.464-3.485V19.044c0-.74.17-1.448.475-2.089v-.005c.3-.629.733-1.188 1.264-1.642 1.499-1.489 4.23-2.74 7.73-3.592 3.308-.806 7.347-1.281 11.69-1.281 4.344 0 8.382.475 11.691 1.28 3.498.853 6.23 2.104 7.729 3.593" fill="#FFF"/><path d="M36.96 23.188h8.837v8.696H36.96c-2.473 0-4.495-1.956-4.495-4.348 0-2.391 2.022-4.348 4.495-4.348" fill="#FFF"/><path d="M37.101 24.928c1.281 0 2.32 1.167 2.32 2.608 0 1.44-1.039 2.609-2.32 2.609-1.28 0-2.318-1.168-2.318-2.609 0-1.44 1.038-2.608 2.318-2.608" fill="#5A5452"/><path d="M1.564 20.87h3.074v3.478H1.564c-.86 0-1.564-.783-1.564-1.74 0-.956.704-1.738 1.564-1.738" fill="#FFF"/><path d="M19.413 1.16h11.03c1.75 0 3.18 1.441 3.18 3.204V17.39a40.124 40.124 0 0 0-2.617-.475 45.138 45.138 0 0 0-6.605-.48 45.38 45.38 0 0 0-5.998.397c-.739.098-1.463.214-2.171.347V4.364c0-1.763 1.431-3.205 3.181-3.205" fill="#56504E"/><path d="M30.984 2.492H20.03a1.92 1.92 0 0 0-1.372.58l.003.002c-.352.36-.57.855-.57 1.398V15.91a45.78 45.78 0 0 1 10.289-.4c1.141.082 2.257.207 3.338.37.345.052.748.12 1.204.203V4.473c0-.544-.218-1.04-.57-1.399l.002-.002a1.92 1.92 0 0 0-1.371-.58M20.03 0h10.953c1.201 0 2.295.503 3.089 1.313h.004a4.508 4.508 0 0 1 1.285 3.16V19.13l-1.471-.323a39.89 39.89 0 0 0-1.246-.254 42.256 42.256 0 0 0-7.66-.679 43.083 43.083 0 0 0-6.853.542c-.35.057-.698.118-1.041.183l-1.439.271V4.472c0-1.23.492-2.35 1.285-3.16h.005A4.318 4.318 0 0 1 20.03 0" fill="#FFF"/><path d="M13.102 17.307c1.72-.532 3.583-.95 5.555-1.233 1.91-.275 3.89-.422 5.906-.422 2.246 0 4.428.178 6.503.51 2.016.322 3.935.794 5.716 1.393h-.001c.522.179.9.708.9 1.335 0 .773-.577 1.4-1.29 1.4-.189 0-.368-.044-.53-.123v.004a33.2 33.2 0 0 0-5.168-1.24 38.954 38.954 0 0 0-6.13-.476c-1.946 0-3.813.135-5.573.389-1.784.256-3.496.64-5.103 1.132-.132.05-.275.077-.423.077-.713 0-1.29-.627-1.29-1.4 0-.637.392-1.174.928-1.344v-.002" fill="#FFF"/><path d="M20.87 1.16h4.058v15.072H20.87V1.159z" fill="#FFF"/></g></svg>
